docs/img/speed.svg

<svg width="137" height="136" viewBox="0 0 137 136" fill="none" xmlns="http://www.w3.org/2000/svg">
<path fill-rule="evenodd" clip-rule="evenodd" d="M32.6218 71.912C33.8612 71.9109 34.8496 72.7989 35.0883 74.1108L38.6369 74.1119V80.6758L35.0872 80.6758C34.8507 81.99 33.8612 82.8768 32.6218 82.878C31.2062 82.8768 30.104 81.8818 30.104 80.4672L30.104 74.3205C30.1029 72.9049 31.2062 71.9109 32.6218 71.912Z" fill="#719E1B"/>
<path fill-rule="evenodd" clip-rule="evenodd" d="M32.1727 31.3759C26.8715 36.677 26.5146 44.9455 31.3773 49.8082C36.24 54.671 44.5085 54.314 49.8097 49.0128C55.1108 43.7117 55.4678 35.4432 50.6051 30.5805C45.7423 25.7177 37.4738 26.0747 32.1727 31.3759ZM52.0285 51.2317C45.5036 57.7566 35.2438 58.1125 29.1584 52.0271C23.0719 45.9406 23.4289 35.6819 29.9538 29.157C36.4787 22.6321 46.7374 22.2751 52.8239 28.3616C58.9093 34.447 58.5534 44.7068 52.0285 51.2317Z" fill="#719E1B"/>
<mask id="mask0_0_1856" style="mask-type:alpha" maskUnits="userSpaceOnUse" x="20" y="19" width="116" height="117">
<path fill-rule="evenodd" clip-rule="evenodd" d="M20.334 77.5791L78.005 135.25L135.676 77.5791L78.005 19.908L20.334 77.5791L20.334 77.5791Z" fill="white"/>
</mask>
<g mask="url(#mask0_0_1856)">
<path fill-rule="evenodd" clip-rule="evenodd" d="M52.4967 52.0701C38.4317 66.1351 38.4328 89.0208 52.4978 103.086C66.5628 117.151 89.4485 117.152 103.513 103.087C117.578 89.0219 117.577 66.1362 103.512 52.0712C89.4473 38.0062 66.5616 38.0051 52.4967 52.0701ZM106.841 106.415C90.9411 122.315 65.069 122.315 49.169 106.415C33.2689 90.5145 33.27 64.6436 49.1701 48.7435C65.0701 32.8434 90.9411 32.8423 106.841 48.7424C122.741 64.6424 122.741 90.5145 106.841 106.415Z" fill="#719E1B"/>
</g>
<mask id="mask1_0_1856" style="mask-type:alpha" maskUnits="userSpaceOnUse" x="0" y="0" width="136" height="136">
<path fill-rule="evenodd" clip-rule="evenodd" d="M78.0055 135.25L135.677 77.579L58.6037 0.506186L0.932617 58.1772L78.0055 135.25Z" fill="white"/>
</mask>
<g mask="url(#mask1_0_1856)">
<path fill-rule="evenodd" clip-rule="evenodd" d="M57.8945 58.667L59.0101 57.5514L55.6634 54.2048L54.5479 55.3203L57.8945 58.667Z" fill="#719E1B"/>
<path fill-rule="evenodd" clip-rule="evenodd" d="M50.534 75.9167L50.5329 79.0548L45.0421 79.0548L45.0432 75.9167H50.534Z" fill="#719E1B"/>
<path fill-rule="evenodd" clip-rule="evenodd" d="M55.6631 103.29L61.2409 97.7118L57.8942 94.3651L52.3164 99.9429L55.6631 103.29Z" fill="#719E1B"/>
<path fill-rule="evenodd" clip-rule="evenodd" d="M76.4202 104.941L79.5583 104.94L79.5571 110.432L76.4202 110.432V104.941Z" fill="#719E1B"/>
<path fill-rule="evenodd" clip-rule="evenodd" d="M100.285 101.058L101.401 99.9429L96.9388 95.4806L95.8232 96.5962L100.285 101.058Z" fill="#719E1B"/>
<path fill-rule="evenodd" clip-rule="evenodd" d="M105.444 79.0553V75.9183L110.936 75.9172L110.935 79.0553L105.444 79.0553Z" fill="#719E1B"/>
<path fill-rule="evenodd" clip-rule="evenodd" d="M98.0547 60.8979L103.632 55.3202L100.286 51.9735L94.708 57.5513L98.0547 60.8979Z" fill="#719E1B"/>
<path fill-rule="evenodd" clip-rule="evenodd" d="M79.5571 50.031L76.4202 50.031V44.5403L79.5571 44.5403V50.031Z" fill="#719E1B"/>
<path fill-rule="evenodd" clip-rule="evenodd" d="M47.8538 53.0892L53.4316 47.5114L45.6227 39.7025L40.0449 45.2803L47.8538 53.0892Z" fill="#719E1B"/>
<path fill-rule="evenodd" clip-rule="evenodd" d="M51.762 36.9173C52.0676 37.2229 52.0676 37.7205 51.762 38.0261L39.4841 50.304C39.1785 50.6096 38.6809 50.6096 38.3752 50.304L32.7908 44.7195C32.4851 44.4138 32.4851 43.9163 32.7908 43.6106L45.0686 31.3328C45.3743 31.0271 45.8718 31.0271 46.1775 31.3328L51.762 36.9173Z" fill="#719E1B"/>
<path fill-rule="evenodd" clip-rule="evenodd" d="M103.886 77.5786H102.4H78.0049" fill="#719E1B"/>
<path fill-rule="evenodd" clip-rule="evenodd" d="M78.0046 103.464L78.0057 51.6916L78.0046 103.464Z" fill="#719E1B"/>
<path fill-rule="evenodd" clip-rule="evenodd" d="M95.1878 60.2635L95.2547 60.3304C100.024 65.0994 102.397 71.3477 102.374 77.6037C102.362 83.8386 99.9847 90.0668 95.2268 94.8246C90.4678 99.5836 84.774 101.427 78.5392 101.439C72.2842 101.46 66.5569 98.5662 61.7879 93.7972L61.721 93.7303C56.9609 88.9702 54.2869 83.0142 54.2769 76.7793L78.5213 77.0638L61.1543 59.6968C66.7321 54.119 71.9529 52.8026 78.2368 52.8194C84.4717 52.8294 90.4277 55.5034 95.1878 60.2635Z" fill="#FED55D"/>
<path fill-rule="evenodd" clip-rule="evenodd" d="M77.9518 73.3852C80.7809 73.1376 83.0778 74.9348 83.0778 77.7727L83.0778 78.0249C83.0767 80.864 80.7809 82.66 77.9529 82.4135C71.6422 81.8635 59.293 79.6391 53.7921 78.7767C52.6465 78.5971 52.8417 77.1614 53.7888 77.022C60.2289 76.0659 71.6422 73.9341 77.9518 73.3852Z" fill="#4E6D0B"/>
</g>
</svg>

<svg width="137" height="136" viewBox="0 0 137 136" fill="none" xmlns="http://www.w3.org/2000/svg"><path fill-rule="evenodd" clip-rule="evenodd" d="M32.622 71.912c1.24-.001 2.228.887 2.466 2.199h3.549v6.565h-3.55c-.236 1.314-1.226 2.2-2.465 2.202-1.416-.001-2.518-.996-2.518-2.41V74.32c-.001-1.415 1.102-2.41 2.518-2.408zm-.449-40.536c-5.302 5.301-5.658 13.57-.796 18.432 4.863 4.863 13.131 4.506 18.433-.795 5.3-5.301 5.658-13.57.795-18.432-4.863-4.863-13.131-4.506-18.432.795zm19.855 19.856c-6.524 6.525-16.784 6.88-22.87.795-6.086-6.086-5.73-16.345.796-22.87 6.525-6.525 16.783-6.882 22.87-.795 6.085 6.085 5.73 16.345-.795 22.87z" fill="#719E1B"/><mask id="mask0_0_1856" style="mask-type:alpha" maskUnits="userSpaceOnUse" x="20" y="19" width="116" height="117"><path fill-rule="evenodd" clip-rule="evenodd" d="M20.334 77.58l57.671 57.67 57.671-57.67-57.671-57.672-57.671 57.671z" fill="#fff"/></mask><g mask="url(#mask0_0_1856)"><path fill-rule="evenodd" clip-rule="evenodd" d="M52.497 52.07c-14.065 14.065-14.064 36.95 0 51.016 14.066 14.065 36.951 14.066 51.016.001 14.065-14.065 14.064-36.95-.001-51.016-14.065-14.065-36.95-14.066-51.015 0zm54.344 54.345c-15.9 15.9-41.772 15.9-57.672 0-15.9-15.9-15.899-41.771.001-57.672 15.9-15.9 41.771-15.9 57.671 0 15.9 15.9 15.9 41.771 0 57.672z" fill="#719E1B"/></g><mask id="mask1_0_1856" style="mask-type:alpha" maskUnits="userSpaceOnUse" x="0" y="0" width="136" height="136"><path fill-rule="evenodd" clip-rule="evenodd" d="M78.005 135.25l57.672-57.671L58.604.506.933 58.177l77.072 77.073z" fill="#fff"/></mask><g mask="url(#mask1_0_1856)" fill-rule="evenodd" clip-rule="evenodd"><path d="M57.895 58.667l1.115-1.116-3.347-3.346-1.115 1.115 3.346 3.347zm-7.361 17.25l-.001 3.138h-5.49v-3.138h5.491zm5.129 27.373l5.578-5.578-3.347-3.347-5.578 5.578 3.347 3.347zm20.757 1.651l3.138-.001v5.492H76.42v-5.491zm23.865-3.883l1.116-1.115-4.462-4.462-1.116 1.115 4.462 4.462zm5.159-22.003v-3.137h5.492l-.001 3.137h-5.491zm-7.389-18.157l5.577-5.578-3.346-3.346-5.578 5.577 3.347 3.347zM79.557 50.031H76.42v-5.49h3.137v5.49zM47.854 53.09l5.578-5.579-7.81-7.809-5.577 5.578 7.809 7.81z" fill="#719E1B"/><path d="M51.762 36.917a.785.785 0 010 1.11L39.484 50.303a.785.785 0 01-1.109 0l-5.584-5.585a.785.785 0 010-1.108l12.278-12.278a.785.785 0 011.108 0l5.585 5.584zm52.124 40.662H78.005m0 25.885V51.692v51.772z" fill="#719E1B"/><path d="M95.188 60.264l.067.066a24.212 24.212 0 017.119 17.274c-.012 6.235-2.39 12.463-7.147 17.22-4.76 4.76-10.453 6.603-16.688 6.615-6.255.021-11.982-2.873-16.751-7.642l-.067-.067c-4.76-4.76-7.434-10.716-7.444-16.95l24.244.284-17.367-17.367c5.578-5.578 10.799-6.894 17.083-6.878 6.235.01 12.19 2.684 16.95 7.444z" fill="#FED55D"/><path d="M77.952 73.385c2.829-.247 5.126 1.55 5.126 4.388v.252c-.001 2.839-2.297 4.635-5.125 4.388-6.31-.55-18.66-2.774-24.16-3.636-1.146-.18-.951-1.616-.004-1.755 6.44-.956 17.853-3.088 24.163-3.637z" fill="#4E6D0B"/></g></svg>
